X:1
T:Canção da Despedida
T:Canção da Despedida
T:Baden Powell
T:Lucas Oliveira
T:Lucas Oliveira
C:Baden Powell
Z:Lucas Oliveira
%%score 1 2 3
L:1/8
Q:3/8=65
M:6/8
K:C
V:1 treble nm="Flauta Transversal" snm="Fl."
V:2 treble-8 nm="Violão" snm="Viol."
V:3 bass transpose=-12 nm="Baixo Elétrico de 5 cordas" snm="B. El."
V:1
 G | c2 c c2 e | d2 c d2 e | c2 c e2 g | a4- aa | g2 e e2 c | d2 c d2 e | c2 A A2 G |: c- c4 a/a/ | %9
w: por|que per- der a|es- pe- rança de|nos vol- tar a|ver? * por|que per- der a|es- pe- rança se|há tan- to que-|rer? * não é|
 g2 e e2 c | d2 c d2 a/a/ | g2 e e2 g | a- a4 a | g2 e e2 c | d2 c d2 e/e/ | c2 A A2 G :| c6 |] %17
w: mais que1 a- té-|lo- * go não é|mais que1 breve a-|deus * bem|ce- do jun- to.ao|fo- * go- volta- *|re- mos a nos|ver|
V:2
 z | CGc ecG | G,Gd gdG | CGc ecG | F,Ac fcA | CGc ecG | G,Gd gdG | CGc ecG |: F,Ac fcA | CGc ecG | %10
 G,Gd gdG | CGc ecG | F,Ac fcA | CGc ecG | G,Gd gdG | CGc ecG :| F,Ac fcA |] %17
V:3
 z | C,4- C,B,, | G,,4- G,,B,, | C,4- C,G,, | F,,4- F,,G,, | C,4- C,B,, | G,,4- G,,B,, | %7
w: |33 * 32|43 * 32|32 * 43|41 * 43|33 * 32|43 * 32|
 C,4- C,G,, |: F,,4- F,,G,, | C,4- C,B,, | G,,4- G,,B,, | C,4- C,G,, | F,,4- F,,G,, | C,4- C,B,, | %14
w: 32 * 43|41 * 43|33 * 32|43 * 32|32 * 43|41 * 43|33 * 32|
 G,,4- G,,B,, | C,4- C,G,, :| F,,4- F,,G,, |] %17
w: 43 * 32|32 * 43|41 * 43|

